X:1
T:Title
%%score { 1 | 2 }
L:1/8
M:4/4
K:E
V:1 treble nm="Grand Piano"
V:2 bass 
V:1
 z4 z2[Q:1/4=100] E2 | G4 z2 E2 | G4 z2 E2 | A3 A E2 F2 | G4 z2 G2 | [DF]4 z2 [DF]2 |[M:3/4] G6 | %7
[M:1/4] B2 |[M:4/4] B2 ^A2 G2 A2 | [DB]4 z2 [DB]2 | [FA]2 [FA]2 [EG]2 [EG]2 | %11
[M:3/4] [DF]2 [DF]2 G2 |[M:1/4] B2 |[M:4/4] c2 B2 A2 G2 | [DF]6 [FA]2 | [EG]2 [CF]2 E2 D2 | %16
[M:3/4] E6 |] %17
V:2
 z4 z2 [E,G,]2 | [E,B,E]4 z2 [E,G,]2 | [E,B,E]4 z2 [E,G,]2 | [E,CE]3 [E,CE] [E,C]2 [E,CE]2 | %4
 [E,B,E]4 z2 [E,B,E]2 | [B,,B,]4 z2 [B,,B,]2 |[M:3/4] [E,B,E]6 |[M:1/4] [E,G,E]2 | %8
[M:4/4] [F,E]2 [F,CE]2 [F,CE]2 [F,CE]2 | [B,,B,]4 z2 [B,,B,]2 | %10
 [B,,B,]2 [B,,B,]2 [B,,B,]2 [B,,B,]2 |[M:3/4] [B,,B,]2 [B,,B,]2 [E,B,E]2 |[M:1/4] [E,G,E]2 | %13
[M:4/4] [A,E]2 [G,B,E]2 [F,B,D]2 [E,B,E]2 | [B,,B,]6 [B,,B,]2 | %15
 [E,B,]2 [A,,A,]2 [B,,G,B,]2 [B,,F,B,]2 |[M:3/4] [E,G,B,]6 |] %17

